X:1
T:Acharonich
M:3/4
L:1/8
C:Sarah Bauhan
S:Untamed Grasses, Trk 10
R:Waltz
Z:Ed Wosika
K:B Dorian
|: B,3D F2 | E3F G2| A3C B,2| A,6|
 B,3D F2| E3D C2| B,6-|B,6|
 B,3D F2 | E3F G2| A3C B,2| A,6|
 B,3D B,2 | C3D E2| F3D C2 | B,6:|
|: B3^A B2| B,3D F2| B3c d2 | d3c B2|
 c3A G2 | A3G F2| E3C B,2 | A,6|
 B,3D B,2| D3E F2| A3G F2 | E3F G2|
 A2 G2 E2| F2 D2 C2| B,6-|B,6:||
W:Whistle >>> use "A" whistle & play a fifth low of "D" whistle position
